X: 2302
M: 6/8
L: 1/8
K: G
|:\
|:\
geg fdf | ece dBG | geg fdf | ece d2g |\
geg fdf | ece dBG | B2d cAA | BGG G2g :|


